X:659
T: DER HIMMEL STEHT OFFEN
N: E2037A
O: Europa, Mitteleuropa, Deutschland, Hessen, Odenwald, Lindenfels
R: geistlich, Wallfahrts - Lied
M: 3/4
L: 1/8
K: G
BA | G2D2G2 | A3GA2 | B3cB2 | A4
AB | c3edc | B3cB2 | A2G2A2 | B4
AB | c3edc | B3cB2 | A2G2A2 | G4

